resources/haticons/SVG/no_food.svg

<!-- Generated by IcoMoon.io -->
<svg version="1.1" xmlns="http://www.w3.org/2000/svg" width="24" height="24" viewBox="0 0 24 24">
<title>no_food</title>
<path d="M11.344 8.531l-0.328-3.516h4.969v-4.031h2.016v4.031h5.016l-1.406 13.781zM0.984 21v0.984q0 0.422 0.305 0.727t0.727 0.305h12.984q0.422 0 0.703-0.305t0.281-0.727v-0.984h-15zM21.891 21.891l-19.781-19.781-1.406 1.406 5.672 5.672q-1.547 0.375-2.766 1.148t-1.922 1.969-0.703 2.695h11.203l1.969 2.016h-13.172v1.969h15v-0.141l4.5 4.453z"></path>
</svg>

<svg xmlns="http://www.w3.org/2000/svg" width="24" height="24"><path d="M11.344 8.531l-.328-3.516h4.969V.984h2.016v4.031h5.016l-1.406 13.781zM.984 21v.984q0 .422.305.727t.727.305H15q.422 0 .703-.305t.281-.727V21h-15zm20.907.891L2.11 2.11.704 3.516l5.672 5.672q-1.547.375-2.766 1.148t-1.922 1.969T.985 15h11.203l1.969 2.016H.985v1.969h15v-.141l4.5 4.453z"/></svg>
